X:1
T:As the Bird Flies Home
T:John Robson Sweney
T:As the Bird Flies Home
T:Public Domain
T:Public Domain
C:John Robson Sweney
Z:Public Domain
%%score ( 1 2 ) ( 3 4 )
L:1/8
M:6/4
K:G
V:1 treble 
V:2 treble 
V:3 bass 
V:4 bass 
V:1
 [B,D][B,D] | [DB]4 [CA]2 [B,G]4 [B,D][B,G] | [CF]4 [CE]2 [B,D]4 DD | [Dc]4 [DB]2 [^CA]4 [CE]2 | %4
w: 1.~As the|bird flies home to its|par- ent nest, When the|seeks his prey, O|
w: 2.~When the|winds are cold, and the|days are long, And thy|care would hide, Fly|
w: 3.~Oh, the|tran- quil joy of that|dear re- treat, Where the|bids thee rest, With|
w: 4.~’Tis the|Lord thy God that to|thee has said, He will|with His eye; In|
 [CA]6- [CA]4 D2 | [DB]4 [CA]2 [B,G]4 [DB][=Fd] | [Ec]4 [CE]2 [CA]4 [EA][EG] | %7
w: child * of|to thy Fa- ther haste,|From the tempt- er’s snare|
w: back, * fly|to thy Fa- ther then,|And be- neath His wings|
w: stead- * fast|and a trust- ing faith,|In His love se- cure|
w: all * thy|like the wear- y dove,|To Thy on- ly ref-|
 [DF]4 [DG]2 [DB]4 [CA]2 | [B,G]6- [B,G]4 z2 ||"^Refrain" [DF]3 [DG] [DA]2 [FA]2 [FB]2 [Fc]2 | %10
w: a- way. * *|||
w: a- bide. Un- der|His *|wings thy de- fense shall be,|
w: and blest. * *|||
w: uge fly. * *|||
 [GB]4 [DA]2 [DG]6 | [DB]3 [Dc] [Dd]2 [Dd]2 [Dc]2 [DB]2 | [^CA]4 [CE]2 [=CA]6 | B4 A2 G6 | %14
w: ||||
w: He with His|fea- thers shall co- ver thee,|Co- ver thee,|co- ver thee,|
w: ||||
w: ||||
 [Ac]4 [GB]2 [FA]6 | [DB]3 [Ec] [=Fd]2 [Ed]2 [Ec]2 [EB]2 | (D2 G2) [FA]2 [DG]4 |] %17
w: |||
w: He with His|fea- thers will co- ver thee.||
w: |||
w: |||
V:2
 x2 | x12 | x10 DD | x12 | x10 D2 | x12 | x12 | x12 | x12 || x12 | x12 | x12 | x12 | x12 | x12 | %15
w: ||hunt- er||God,|||||||||||
w: ||soul from||back,|||||||||||
w: ||Sav- ior||hope,|||||||||||
w: ||guide thee||need,|||||||||||
 x12 | B4 x6 |] %17
w: ||
w: ||
w: ||
w: ||
V:3
 [G,,G,][G,,G,] | [G,,G,]4 [G,,D,]2 [G,,D,]4 [G,,G,][G,,G,] | %2
 [C,G,]4 [C,G,]2 [G,,G,]4 [G,B,][G,B,] | [F,A,]4 G,2 [E,G,]4 [E,G,]2 | [D,F,]6- [D,F,]4 [D,F,]2 | %5
 [G,,G,]4 [G,,D,]2 [G,,D,]4 [G,,G,][G,,G,] | [C,G,]4 [C,G,]2 [C,E,]4 [C,C][C,C] | %7
 [D,A,]4 [D,B,]2 [D,G,]4 [D,F,]2 | [G,,G,]6- [G,,G,]4 z2 || %9
 [D,A,]3 [D,B,] [D,C]2 [D,C]2 [D,D]2 [D,E]2 | [G,D]4 [G,C]2 [G,B,]6 | %11
 G,3 [G,A,] [G,B,]2 [G,B,]2 [G,A,]2 G,2 | [E,G,]4 [E,G,]2 [D,F,]6 | D4 C2 B,6 | z12 | %15
 G,3 G, G,2 [C,G,]2 [C,G,]2 [^C,G,]2 | (G,2 D2) [D,C]2 [G,,G,B,]4 |] %17
V:4
 x2 | x12 | x12 | x4 G,2 x6 | x12 | x12 | x12 | x12 | x12 || x12 | x12 | G,3 x4 G,2 x3 | x12 | %13
 x12 | x12 | G,3 G, G,2 x6 | D,4 x6 |] %17

